SVG_Azure_Grouped/Security/Sentinel.svg

<?xml version="1.0" encoding="UTF-8" standalone="no"?>
<!-- Generated by Microsoft Visio, SVG Export Sentinel.svg Page-1 -->

<svg
   xmlns:dc="http://purl.org/dc/elements/1.1/"
   xmlns:cc="http://creativecommons.org/ns#"
   xmlns:rdf="http://www.w3.org/1999/02/22-rdf-syntax-ns#"
   xmlns:svg="http://www.w3.org/2000/svg"
   xmlns="http://www.w3.org/2000/svg"
   xmlns:sodipodi="http://sodipodi.sourceforge.net/DTD/sodipodi-0.dtd"
   xmlns:inkscape="http://www.inkscape.org/namespaces/inkscape"
   width="0.66930288in"
   height="0.78749686in"
   viewBox="0 0 48.189985 56.700014"
   xml:space="preserve"
   class="st4"
   version="1.1"
   id="svg34"
   sodipodi:docname="Sentinel.svg"
   style="font-size:12px;overflow:visible;color-interpolation-filters:sRGB;fill:none;fill-rule:evenodd;stroke-linecap:square;stroke-miterlimit:3"
   inkscape:version="0.92.5 (2060ec1f9f, 2020-04-08)"><metadata
   id="metadata40"><rdf:RDF><cc:Work
       rdf:about=""><dc:format>image/svg+xml</dc:format><dc:type
         rdf:resource="http://purl.org/dc/dcmitype/StillImage" /></cc:Work></rdf:RDF></metadata><defs
   id="defs38" /><sodipodi:namedview
   pagecolor="#ffffff"
   bordercolor="#666666"
   borderopacity="1"
   objecttolerance="10"
   gridtolerance="10"
   guidetolerance="10"
   inkscape:pageopacity="0"
   inkscape:pageshadow="2"
   inkscape:window-width="640"
   inkscape:window-height="480"
   id="namedview36"
   showgrid="false"
   inkscape:zoom="1.5724175"
   inkscape:cx="32.125956"
   inkscape:cy="29.69497"
   inkscape:window-x="0"
   inkscape:window-y="0"
   inkscape:window-maximized="0"
   inkscape:current-layer="svg34" />
	<style
   type="text/css"
   id="style2">
	<![CDATA[
		.st1 {fill:#0072c6;stroke:none;stroke-linecap:butt;stroke-width:21.8571}
		.st2 {fill:#ffffff;fill-opacity:0.15;stroke:none;stroke-linecap:butt;stroke-width:21.8571}
		.st3 {fill:#ffffff;stroke:none;stroke-linecap:butt;stroke-width:21.8571}
		.st4 {fill:none;fill-rule:evenodd;font-size:12px;overflow:visible;stroke-linecap:square;stroke-miterlimit:3}
	]]>
	</style>

	<g
   id="g32"
   transform="translate(-21.8571,-21.8543)">
		<title
   id="title4">Page-1</title>
		<g
   id="group16714-1"
   transform="translate(21.8571,-34.0157)">
			<title
   id="title6">Sentinel.16714</title>
			<g
   id="group16715-2">
				<title
   id="title8">Sheet.16715</title>
				<g
   id="shape16716-3">
					<title
   id="title10">Sheet.16716</title>
					<path
   d="M 23.05,111.87 C 17.64,108.44 0,96.05 0,81.59 v -18.5 l 1.89,-0.14 c 7.54,-0.49 10.47,-2.5 13.05,-4.28 2.2,-1.49 4.1,-2.8 9.16,-2.8 5.06,0 7.04,1.37 9.13,2.81 2.59,1.77 5.53,3.81 13.07,4.29 l 1.89,0.12 v 18.5 c 0,14.46 -17.65,26.85 -23.06,30.3 l -1.05,0.68 z"
   class="st1"
   id="path12"
   inkscape:connector-curvature="0"
   style="fill:#0072c6;stroke:none;stroke-width:21.85709953;stroke-linecap:butt" />
				</g>
				<g
   id="shape16717-5"
   transform="translate(1.14498,-6.40276)">
					<title
   id="title15">Sheet.16717</title>
					<path
   d="M 15.91,112.56 31.72,66.24 31.47,66.07 c -2.04,-1.4 -3.8,-2.62 -8.51,-2.62 -4.71,0 -6.4,1.18 -8.52,2.63 -2.71,1.86 -5.77,3.97 -13.63,4.45 L 0,70.6 v 17.39 c 0,9.97 8.94,19.03 15.91,24.58 z"
   class="st2"
   id="path17"
   inkscape:connector-curvature="0"
   style="fill:#ffffff;fill-opacity:0.15;stroke:none;stroke-width:21.85709953;stroke-linecap:butt" />
				</g>
				<g
   id="shape16718-7"
   transform="translate(5.77999,-28.3518)">
					<title
   id="title20">Sheet.16718</title>
					<path
   d="m 18.32,100.76 h 0.01 a 12.6051,12.9703 0 0 1 12.55,11.75 l 0.01,0.06 h 5.73 C 36.08,102.59 28.09,94.7 18.31,94.7 8.52,94.7 0.53,102.59 0,112.52 v 0.05 h 5.73 c 0.6,-6.65 5.99,-11.81 12.55,-11.81 h 0.04 z"
   class="st3"
   id="path22"
   inkscape:connector-curvature="0"
   style="fill:#ffffff;stroke:none;stroke-width:21.85709953;stroke-linecap:butt" />
				</g>
				<g
   id="shape16719-9"
   transform="translate(17.3314,-20.1986)">
					<title
   id="title25">Sheet.16719</title>
					<path
   d="m 13.54,105.6 a 6.77173,6.96791 0 1 1 -13.54,0 6.77173,6.96791 0 1 1 13.54,0 z"
   class="st3"
   id="path27"
   inkscape:connector-curvature="0"
   style="fill:#ffffff;stroke:none;stroke-width:21.85709953;stroke-linecap:butt" />
				</g>
			</g>
		</g>
	</g>
</svg>

<?xml version="1.0" encoding="UTF-8" standalone="no"?>
<!DOCTYPE svg PUBLIC "-//W3C//DTD SVG 1.1//EN" "http://www.w3.org/Graphics/SVG/1.1/DTD/svg11.dtd">
<!-- Generated by Microsoft Visio, SVG Export Sentinel.svg Page-1 -->
<svg xmlns="http://www.w3.org/2000/svg" xmlns:xlink="http://www.w3.org/1999/xlink" xmlns:ev="http://www.w3.org/2001/xml-events"
		width="1.27643in" height="1.56341in" viewBox="0 0 91.9033 112.566" xml:space="preserve" color-interpolation-filters="sRGB"
		class="st4">
	<style type="text/css">
	<![CDATA[
		.st1 {fill:#0072c6;stroke:none;stroke-linecap:butt;stroke-width:21.8571}
		.st2 {fill:#ffffff;fill-opacity:0.15;stroke:none;stroke-linecap:butt;stroke-width:21.8571}
		.st3 {fill:#ffffff;stroke:none;stroke-linecap:butt;stroke-width:21.8571}
		.st4 {fill:none;fill-rule:evenodd;font-size:12px;overflow:visible;stroke-linecap:square;stroke-miterlimit:3}
	]]>
	</style>

	<g>
		<title>Page-1</title>
		<g id="group16331-1" transform="translate(21.8571,-34.0157)">
			<title>Sentinel.16331</title>
			<g id="group16332-2">
				<title>Sheet.16332</title>
				<g id="shape16333-3">
					<title>Sheet.16333</title>
					<path d="M23.05 111.87 C17.64 108.44 0 96.05 0 81.59 L0 63.09 L1.89 62.95 C9.43 62.46 12.36 60.45 14.94 58.67
								 C17.14 57.18 19.04 55.87 24.1 55.87 C29.16 55.87 31.14 57.24 33.23 58.68 C35.82 60.45 38.76 62.49
								 46.3 62.97 L48.19 63.09 L48.19 81.59 C48.19 96.05 30.54 108.44 25.13 111.89 L24.08 112.57 L23.05
								 111.87 Z" class="st1"/>
				</g>
				<g id="shape16334-5" transform="translate(1.14498,-6.40276)">
					<title>Sheet.16334</title>
					<path d="M15.91 112.56 L31.72 66.24 L31.47 66.07 C29.43 64.67 27.67 63.45 22.96 63.45 C18.25 63.45 16.56 64.63
								 14.44 66.08 C11.73 67.94 8.67 70.05 0.81 70.53 L0 70.6 L0 87.99 C0 97.96 8.94 107.02 15.91 112.57
								 L15.91 112.56 Z" class="st2"/>
				</g>
				<g id="shape16335-7" transform="translate(5.77999,-28.3518)">
					<title>Sheet.16335</title>
					<path d="M18.32 100.76 L18.33 100.76 A12.6051 12.9703 0 0 1 30.88 112.51 L30.89 112.57 L36.62 112.57 C36.08 102.59
								 28.09 94.7 18.31 94.7 C8.52 94.7 0.53 102.59 0 112.52 L0 112.57 L5.73 112.57 C6.33 105.92 11.72
								 100.76 18.28 100.76 L18.32 100.76 L18.32 100.76 L18.32 100.76 Z" class="st3"/>
				</g>
				<g id="shape16336-9" transform="translate(17.3314,-20.1986)">
					<title>Sheet.16336</title>
					<path d="M13.54 105.6 A6.77173 6.96791 0 1 1 0 105.6 A6.77173 6.96791 0 1 1 13.54 105.6 Z" class="st3"/>
				</g>
			</g>
		</g>
	</g>
</svg>
